.local/share/icons/Gruvbox-Plus-Dark/panel/16/ubuntuone-client-paused.svg

<svg width="16" height="16" version="1.1" xmlns="http://www.w3.org/2000/svg">
  <defs>
    <style id="current-color-scheme" type="text/css">.ColorScheme-Text { color:#ebdbb2; } .ColorScheme-Highlight { color:#458588; } .ColorScheme-NeutralText { color:#fe8019; } .ColorScheme-PositiveText { color:#689d6a; } .ColorScheme-NegativeText { color:#fb4934; }</style>
  </defs>
  <path class="ColorScheme-Text" d="m6 3c-2.209 0-4 1.791-4 4 7.207e-4 0.05733 0.00267 0.1146 0.00586 0.1719-1.201 0.4217-2.005 1.555-2.006 2.828 0 1.657 1.343 3 3 3h10c1.657 0 3-1.343 3-3-0.0017-1.274-0.8073-2.408-2.01-2.828 0.0049-0.0572 0.0082-0.1145 0.0098-0.1719 0-1.657-1.343-3-3-3-0.6501 0.0014-1.282 0.2138-1.801 0.6055-0.7542-1.009-1.94-1.604-3.199-1.605zm-0.5 3.504h2v4h-2zm3 0h2v4h-2z" fill="currentColor"/>
</svg>

<svg xmlns="http://www.w3.org/2000/svg" width="16" height="16" version="1.1">
 <defs>
  <style id="current-color-scheme" type="text/css">
   .ColorScheme-Text { color:#ebdbb2; } .ColorScheme-Highlight { color:#458588; }
  </style>
 </defs>
 <path style="fill:currentColor" class="ColorScheme-Text" d="M 6 3 A 4 4 0 0 0 2 7 A 4 4 0 0 0 2.0058594 7.171875 A 3 3 0 0 0 0 10 A 3 3 0 0 0 3 13 L 13 13 A 3 3 0 0 0 16 10 A 3 3 0 0 0 13.990234 7.171875 A 3 3 0 0 0 14 7 A 3 3 0 0 0 11 4 A 3 3 0 0 0 9.1992188 4.6054688 A 4 4 0 0 0 6 3 z M 7 6 L 8 6 L 8 10 L 7 10 L 7 6 z M 9 6 L 10 6 L 10 10 L 9 10 L 9 6 z"/>
</svg>
